svgs/sharp-regular/tire-pressure-warning.svg

<svg xmlns="http://www.w3.org/2000/svg" viewBox="0 0 512 512"><!--! Font Awesome Pro 6.6.0 by @fontawesome - https://fontawesome.com License - https://fontawesome.com/license (Commercial License) Copyright 2024 Fonticons, Inc. --><path d="M400 0l0 24 0 30.5c0 30.1 4.9 60 14.4 88.5l2.5 7.4c6.1 18.4 14.4 35.6 22.2 51.5c15 30.5 26.3 66.3 22 105.3c-4 36.7-22.3 79.2-70.5 124.8l-269.3 0c-48.2-45.6-66.4-88.1-70.5-124.8c-4.3-39 7-74.8 22-105.3c7.8-15.8 16.1-33 22.2-51.5l2.5-7.4c9.5-28.6 14.4-58.4 14.4-88.5L112 24l0-24L64 0l0 24 0 30.5c0 24.9-4 49.7-11.9 73.4l-2.5 7.4c-5 15-11.9 29.6-19.7 45.4C12.7 215.5-2.5 260.9 3.2 312.4c5.5 49.7 30 102.1 84.8 154.1L88 512l48 0 0-32 48 0 0 32 48 0 0-32 48 0 0 32 48 0 0-32 48 0 0 32 48 0 0-45.5c54.8-51.9 79.3-104.3 84.8-154.1c5.7-51.5-9.5-96.9-26.7-131.8c-7.8-15.8-14.7-30.4-19.7-45.4l-2.5-7.4C452 104.2 448 79.4 448 54.5L448 24l0-24L400 0zM280 96l-48 0 0 24 0 112 0 24 48 0 0-24 0-112 0-24zM232 288l0 48 48 0 0-48-48 0z"/></svg>

<svg xmlns="http://www.w3.org/2000/svg" viewBox="0 0 512 512"><!--! Font Awesome Pro 6.4.2 by @fontawesome - https://fontawesome.com License - https://fontawesome.com/license (Commercial License) Copyright 2023 Fonticons, Inc. --><path d="M400 0V24 54.5c0 30.1 4.9 60 14.4 88.5l2.5 7.4c6.1 18.4 14.4 35.6 22.2 51.5c15 30.5 26.3 66.3 22 105.3c-4 36.7-22.3 79.2-70.5 124.8H121.4c-48.2-45.6-66.4-88.1-70.5-124.8c-4.3-39 7-74.8 22-105.3c7.8-15.8 16.1-33 22.2-51.5l2.5-7.4c9.5-28.6 14.4-58.4 14.4-88.5V24 0H64V24 54.5c0 24.9-4 49.7-11.9 73.4l-2.5 7.4c-5 15-11.9 29.6-19.7 45.4C12.7 215.5-2.5 260.9 3.2 312.4c5.5 49.7 30 102.1 84.8 154.1V512h48V480h48v32h48V480h48v32h48V480h48v32h48V466.5c54.8-51.9 79.3-104.3 84.8-154.1c5.7-51.5-9.5-96.9-26.7-131.8c-7.8-15.8-14.7-30.4-19.7-45.4l-2.5-7.4C452 104.2 448 79.4 448 54.5V24 0H400zM280 96H232v24V232v24h48V232 120 96zM232 288v48h48V288H232z"/></svg>
